X: 8
T: The Heather Breeze
R: reel
M: 4/4
L: 1/8
K: Gmaj
bgdg bagb | afdf agfa | bgdg bgag | fdcA BGGg |
bgdg bgdg | afdf agfa | bgaf (3gfe dB | cedc BGGg||


Tune 411	Setting 23300

